X:1
T:3 Lieder, Op.8
T:In die Ferne
T:Frau Caroline von Hoesslin (geb: v. Eichthal) achtungsvoll gewidmet 
T:2. In die Ferne
T:Josephine Lang
T:Hermann Kletke
T:3 Lieder, Op.8
T:Creative Commons copyright waiver (CC0 1.0 Universal)
T:Creative Commons copyright waiver (CC0 1.0 Universal)
T:Creative Commons copyright waiver (CC0 1.0 Universal)
T:Creative Commons copyright waiver (CC0 1.0 Universal)
T:Creative Commons copyright waiver (CC0 1.0 Universal)
C:Josephine Lang
Z:Hermann Kletke
Z:Creative Commons copyright waiver (CC0 1.0 Universal)
%%score 1 { ( 2 4 ) | ( 3 5 ) }
L:1/8
Q:1/4=116
M:3/4
K:C
V:1 treble nm="Singstimme\nVoice"
V:2 treble nm="Pianoforte"
V:4 treble 
V:3 bass 
V:5 bass 
V:1
"^Allegro moderato" z6 | z6 | z6 | z6 | z6 | z6 | z6 | z6 |!<(! E2 E2 E2 | E2 E!<)! z!>(! E2 | %10
w: ||||||||Siehst du am|A- bend die|
 A4 A2!>)! | c4 z2 |!p! c2 A2 d2 | (G2 E2"^dol." A2 | (A2 F2) E2) | D4 z D | D3 D D2 | %17
w: Wol- ken|zieh'n,|siehst du die|Spit- zen der|Ber- * ge|glüh'n, mit|e- wi- gem|
 (^D2 A) z z!<(! A | A2 A2 B2 | c2!<)! z2!>(! c2 | !>!e2 !>!d2 !>!c2 | %21
w: Schnee * die|Gip- fel um-|glänzt mit|grü- nen- den|
 B2 A2!>)!"^dim." z!<(! E!<)! |!>(! G2!>)! ^F z!p! (B2 | G4) z2 | (f z d2 A2 | F4 E2) | %26
w: Wäl- dern, die|Tä- ler um-|grenzt.|Ach! in die|Fer- ne|
 !>!E2!>(! D2!>)! C2 | C4 (B,2 | C) z!<(! (E2 G2!<)! | (c3 C) C2) | (C2!<(! F2 _A2!<)! | %31
w: sehnt sich mein|Herz _|ach! in die|Fer- * ne,|sehnt sich mein|
!>(! c6)!>)! | (c z!<(! c3 c!<)! |!f! f4 e2 | d2 !>!c2 !>!B2 |!>(! (A2!>)! G4)) |!<(! (A6!<)! | %37
w: Herz,|ach, in die|Fer- ne|sehnt sich mein|Herz *|sehnt|
!>(! c6)!>)! |!p! D6 |!>(! G6!>)! | C6- | C6- | C6 | z6 | z6 | z6 | z6 | z6 | z6 | E z E2 E2 | %50
w: _|sich|mein|Herz!|_||||||||Ach! in den|
 E2 E2 z E |!<(! A4!<)! A2 |!>(! c6!>)! | c2 A2 (d2 | G2) E2 z"^dol." (A |!>(! (A2!>)! F2) (E2 | %56
w: Wäl- dern so|e- wig|grün|kann still und|heim- lich die|Lie- * be|
 D4)) z D | D4 D2 | (^D2 A2) z A |!<(! A4 B2 | c2!<)! z2!>(! c2 | e2 d2 c2!>)! | %62
w: glühn der|Mor- gen|sieht sie, der|A- bend-|schein und|Lieb ist mit|
 B2 A2!<(! (E2!<)! |!>(! G2)!>)! ^F z (B2 | G6) |!p! (f z d3 A) | F4 E2 | (!>!E2 D2) z C | %68
w: Lie- be so|se- lig al-|lein,|ach! in die|Fer- ne|sehnt sich mein|
 (!>!C4 B,) z | (C2"^string." E2 G2 |!>(! (c3 C) C2!>)! | C2 F2 _A2 |!<(! c6)!<)! | %73
w: Herz, _|ach, in die|Fer- * ne|sehnt sich mein|Herz,|
 c z!<(! c3 c!<)! |!>(! f4 e2 | !>!d2 !>!c2 !>!B2!>)! | (A2 G4) | (A6 |"^dimin." c6 | !turn!D6) | %80
w: ach, in die|Fer- ne|sehnt sich mein|Herz _|sehnt|_|sich|
!<(!{/A} (G6!<)! | C6-) | C6- | C4 z2 | z6 | z6 | z6 | z6 | z6 | z6 | E z (E2 E2 | E2 E2) (EA | %92
w: mein|Herz!|_||||||||O könnt' ich|zie- hen im *|
!<(! A4 A2!<)! |!>(! c6!>)! | c2) A2 (!>!d2 | G2) E2 A2 | (!>!A2 F2) E2 | D2 z2 z D | D2 D2 z D | %99
w: Mor- gen-|rot,|o, hauch- te|A- bend mir|Lie- * bes-|tod es|schwin- det das|
 ^D2 A2"^cresc." z A | A4 B2 | c6 |!f! e2 d3 c |!>(! B2!>)! A z!<(! E2!<)! |!>(! G2!>)! ^F2 B2 | %105
w: Le- ben, du|weisst es|kaum,|o ew'- ge|Lie- be, o|e- wi- ger|
 G6 | f z d3 A | F4 E2 | (E2 D3 C) | (C4 B,2) | (C z E3"^string." G |[Q:1/4=118] (c3 C) C2 | %112
w: Traum!|Ach! in die|Fer- ne|sehnt sich mein|Herz, _|ach, in die|Fer- * ne|
[Q:1/4=120] !>!C2 !>!F2 !>!_A2) |!<(! c6!<)! |[Q:1/4=116] c z c3 c |[Q:1/4=114] (f4 e2 | d2 c2 B2 | %117
w: sehnt sich mein|Herz,|ach! in die|Fer- ne|sehnt sich mein|
 (A2 G4)) |!>(! (A6!>)! | c6) | D6 |[Q:1/4=112] G6 |[Q:1/4=116] C6- | C6 | z6 | z6 | z6 | z6 | z6 | %129
w: Herz *|sehnt|_|sich|mein|Herz.|_||||||
 !fermata!z6 |] %130
w: |
V:2
!p!!<(! [CE]2 [CE]2 [CE]2 | [CE]2 [CE]2 [CE]2!<)! | A4 A2 |!f! A4 A2 | [CEGc]2 [CFA]2 [FGd]2 | %5
 [EG]2 [CE]2 [C_EA]2 | D4 (=F_E) | [B,D]2 z2 z2 |!pp!!<(! [CE]2 [CE]2 [CE]2 | %9
 [CE]2 [CE]2!<)! [CE]2 | [C_E]2 [CE]2 [CE]2 |!f! [CD]2 [CD]2"_molto  legato." [CDAc]2 | %12
 [C=EGc]2 [CFA]2 [B,FG]2 | [CEG]2 [^CEA]2 [A,CE]2 | [A,DF]2 [B,DG]2 [CEG]2 | G6 | %16
 [CD]2 [CD]2 [CD]2 | [C^D]2 [CD]2 [CD]2 |"_cresc." [CE]2 [CE]2 [B,E]2 | [CE]2 [CE]2!>(! [CE]2 | %20
 [CD^F]2 [CDF]2 [CDF]2!>)! | [B,DG]2"_dim." [A,EG]2 [A,^CG]2 | (G2 ^F) z D2 | D6 | %24
!pp! [Adf] z [FAd]2 [DFA]2 | [DF]4 E2 |!>(! ^F6!>)! | G4 G2 | [CEG]2 [CEG]2 [CEG]2 | %29
 [C_EG]2 [CEG]2 [CE^F]2 | [CD=F]2 [CDF]2 [CDF]2 | F3 E E2 |"_cresc." [CEAc]2 [CE_Bc]2 [CFAc]2 | %33
!f! [F=Bf]2 [FBf]2!>(! [Gce]2 | [FAd]2 [_EAc]2 [DGB]2!>)! | [CDA]2 [G,DG]2 [G,CEG]2 | A6 |!p! A6 | %38
 [CD]2 [CD]2 [CD]2 | [B,D]2"^dimin." [B,D]2 [B,D]2 | !>!C4 C2 |!<(! [CEG]2 [CEG]2 [CEG]2!<)! | %42
!>(! !>!G3 ^F F2!>)! |!p! =F2 c3 F | F3 E E2 |!<(! [CEAc]2 [CEAc]2 [CE_Bc]2 | %46
 ([Acfa]2 [=Bfg=b]2 [cegc']2)!<)! |!p!!>(! [CE]4 [DG]2 | [CE]6!>)! |!pp!!<(! [CE]2 [CE]2 [CE]2 | %50
 [CE]2 [CE]2!<)! [CE]2 |!<(! [C_E]2 [CE]2 [CE]2!<)! |!>(! [CD]2 [CD]2 [CDAc]2!>)! | %53
 [C=EGc]2"_dol." [C=FA]2 [B,FG]2 |!p! [CEG]2 [^CEA]2 [A,CE]2 | %55
 !arpeggio![A,DF]2 !arpeggio![B,DG]2!p! !arpeggio![=CEG]2 | G6 |!p! [CD]2 [CD]2 [CD]2 | %58
 [C^D]2 [CD]2 [CD]2 | [CE]2 [CE]2 [B,E]2 | [CE]2 [CE]2 [CE]2 | [CD^F]2"_cresc." [CDF]2 [CDF]2 | %62
 [B,DG]2 [A,EG]2!<(! [A,^CG]2!<)! |!f!!>(! [A,-=C-G]2 [A,C^F]2!>)! [CD]2 |!p! D6 | %65
!pp! [Adf] z [FAd]2 [DFA]2 | [DF]4 E2 |!>(! ^F6!>)! | G4 G2 | [CEG]2"_legato" [CEG]2 [CEG]2 | %70
!p! [C_EG]2 [CEG]2 [CE^F]2 |!<(! [CD=F]2 [CDF]2 [CDF]2!<)! |!>(! F3 =E E2!>)! | %73
!<(! [CEAc]2 [CE_Bc]2 [CFAc]2!<)! |!f!!>(! [F=Bf]2 [FBf]2 [Gce]2 | [FAd]2 [_EAc]2 [DGB]2!>)! | %76
!<(! [CDA]2!<)!!>(! [DG]2!>)! [CG]2 |!p! [CD]2 [CD]2 [CD]2 | [C_E]2 [CE]2 [CE]2 | %79
 [CD]2 [CD]2 [CD]2 | D2 D2 D2 | !>!C6 | [CEG]2"_cresc." [CEG]2 [CEG]2 | G3 ^F F2 | %84
"^dol." !turn!=F2 c3 F | ((F3 =E)!>(! E2 | [CEAc]2 [CEAc]2 [CE_Bc]2!>)! | %87
"_decresc." [Aca]2 [=Bfg=b]2 [cegc']2) | [CE]4 [DG]2 | [CE]6 |!p!!<(! [CE]2 [CE]2 [CE]2 | %91
 [CE]2 [CE]2!<)!!>(! [CE]2 | [C_E]2 [CE]2 [CE]2!>)! | [CD]2 [CD]2 [CDAc]2 | %94
 [C=EGc]2 [CFA]2 [B,FG]2 | [CEG]2 [^CEA]2 [A,CE]2 | [A,DF]2 [B,DG]2 [CEG]2 | G6 | %98
 [CD]2 [CD]2 [CD]2 | [C^D]2"_cresc." [CD]2 [CD]2 |!f! [CE]2 [CE]2 [B,E]2 | [CE]2 [CE]2 [CE]2 | %102
"_cresc." [CD^F]2 [CDF]2 [CDF]2 |!>(! [B,DG]2 [A,EG]2 [A,^CG]2 | [A,=CG]2 [A,C^F]2 D2!>)! | D6 | %106
!pp! !>![Adf]2 [FAd]2 [DFA]2 | [DF]4 E2 | ^F6 | G4 G2 | [CEG]2 [CEG]2 [CEG]2 | %111
"_string." [C_EG]2 [CEG]2 [CE^F]2 | [CD=F]2 [CD=F]2 [CD=F]2 | F3 E E2 | %114
!<(! [C=EAc]2 [CE_Bc]2 [CFAc]2!<)! |!>(! [F=Bf]2 [FBf]2 [Gce]2!>)! | [FAd]2 [_EAc]2 [DGB]2 | %117
 [CDA]2 [DG]2 [CEG]2 | A6 | A6 | [CD]2 [CD]2 [CD]2 | [B,D]2 [B,D]2 [B,D]2 | %122
!pp!!<(! (.[CE]2 .[CE]2 .[CE]2 | .[CE]2 .[CE]2 .[CE]2)!<)! |!mf!!>(! A4 A2!>)! | [Ac]6 | %126
 [CEGc]2"_dim." [CFA]2 [FGd]2 | [EG]2 [CE]2 [C_EA]2 | G4 G2 | !fermata![EG]6 |] %130
V:3
 (C2 B,2 _B,2 | A,2 _A,2 G,2) | [^F,A,]2 [F,A,]2 [F,A,]2 | [^F,A,]2 [F,A,]2 [F,A,]2 | %4
 G,2 G,,2 [G,=B,]2 | [G,C]2 G,2 G,,2 | [G,C]2 [G,=B,]2 [^F,A,C]2 | (G,2 A,2 B,2) | (C2 B,2 _B,2 | %9
 A,2 _A,2 G,2) | [^F,A,]2 [F,A,]2 [F,A,]2 | [^F,A,]2 [F,A,]2 [F,A,]2 | G,6 | G,,6 | G,4 G,2 | %15
 G,2 G,2 G,2 | [^F,A,]2 [F,A,]2 [F,A,]2 | [=F,A,]2 [F,A,]2 [F,A,]2 | [E,A,]2 [E,A,]2 [E,^G,]2 | %19
 [A,,E,A,]2 [A,,E,A,]2 [A,,E,A,]2 | [A,,D,A,]2 [A,,D,A,]2 [A,,D,A,]2 | [B,,D,G,]2 ^C,2 E,2 | %22
 [A,=C]4 [^F,C]2 | [G,B,]2 [G,B,]2 [G,B,]2 | !>!G,,6 | A,2 =B,2[I:staff -1] C2 |[I:staff +1] G,,6 | %27
 C2 C2 B,2 | [C,_B,]2 [C,B,]2 [C,B,]2 | [C,A,]2 [C,A,]2 [C,A,]2 | [C,_A,]2 [C,A,]2 [C,A,]2 | %31
 [C,G,]2 [C,G,]2 [C,G,]2 | [A,,A,]2 [G,,G,]2 [F,,F,]2 | [D,,D,]2 [D,,D,]2 [E,,E,]2 | %34
 [F,,F,]2 [^F,,^F,]2 [G,,G,]2 | [A,,^F,]2 [B,,=F,]2 [C,E,]2 | [^F,A,]2 [F,A,]2 [F,A,]2 | %37
 [^F,A,]2 [F,A,]2 [F,A,]2 | G,6 | F,2 F,2 F,2 | !arpeggio![E,_B,]2 [E,B,]2 [E,B,]2 | %41
 [C,_B,]2 [C,B,]2 [C,B,]2 | [C,A,]2 [C,A,]2 [C,A,]2 | [C,_A,]2 [C,A,]2 [C,A,]2 | %44
 [C,G,]2 [C,G,]2 [C,G,]2 | [A,,A,]2 [A,,A,]2 [G,,G,]2 | [F,,F,]2 [D,,D,]2 [C,,C,]2 | %47
 G,,2 G,,2 G,,2 | [G,,C,]2 [G,,C,]2 [G,,C,]2 | (C2 B,2 _B,2 | A,2 _A,2 G,2) | %51
 [^F,A,]2 [F,A,]2 [F,A,]2 | [^F,A,]2 [F,A,]2 [F,A,]2 | G,6 | G,,6 | G,4 G,2 | G,2 G,2 G,2 | %57
 [^F,A,]2 [F,A,]2 [F,A,]2 | [=F,A,]2 [F,A,]2 [F,A,]2 | [E,A,]2 [E,A,]2 [E,^G,]2 | %60
 [A,,E,A,]2 [A,,E,A,]2 [A,,E,A,]2 | [A,,D,A,]2 [A,,D,A,]2 [A,,D,A,]2 | [B,,D,G,]2 ^C,2 E,2 | %63
 D,2 D,2 D,,2 | [G,B,]2 [G,B,]2 [G,B,]2 | G,,6 | A,2 =B,2[I:staff -1] C2 |[I:staff +1] G,,6 | %68
 G,4 G,2 | [C,_B,]2 [C,B,]2 [C,B,]2 | [C,A,]2 [C,A,]2 [C,A,]2 | [C,_A,]2 [C,A,]2 [C,A,]2 | %72
 [C,G,]2 [C,G,]2 [C,G,]2 | [A,,A,]2 [G,,G,]2 [F,,F,]2 | [D,,D,]2 [D,,D,]2 [E,,E,]2 | %75
 [F,,F,]2 [^F,,^F,]2 [G,,G,]2 | [A,,^F,]2 [B,,=F,]2 [C,E,]2 | [^F,A,]2 [F,A,]2 [F,A,]2 | %78
 [^F,A,]2 [F,A,]2 [F,A,]2 | G,6 | [=F,B,]2 [F,B,]2 [F,B,]2 | [E,_B,]2 [E,B,]2 [E,B,]2 | %82
 [C,_B,]2 [C,B,]2 [C,B,]2 | [C,A,]2 [C,A,]2 [C,A,]2 | [C,_A,]2 [C,A,]2 [C,A,]2 | %85
 [C,G,]2 [C,G,]2 [C,G,]2 | [A,,A,]2 [A,,A,]2 [G,,G,]2 | [F,,F,]2 [D,,D,]2 [C,,C,]2 | %88
 [E,G,]2!p! [E,G,]2 [F,B,]2 | [E,G,]2!pp! [E,G,]2 [E,G,]2 | (C2 B,2 _B,2 | A,2 _A,2 G,2) | %92
 [^F,A,]2 [F,A,]2 [F,A,]2 | [^F,A,]2 [F,A,]2 [F,A,]2 | G,6 | G,,6 | G,4 G,2 | G,2 G,2 G,2 | %98
 [^F,A,]2 [F,A,]2 [F,A,]2 | [=F,A,]2 [F,A,]2 [F,A,]2 | [E,A,]2 [E,A,]2 [E,^G,]2 | %101
 [A,,E,A,]2 [A,,E,A,]2 [A,,E,A,]2 | [A,,D,A,]2 [A,,D,A,]2 [A,,D,A,]2 | [B,,D,G,]2 ^C,2 E,2 | %104
 x4 [^F,C]2 | [G,B,]2 [G,B,]2 [G,B,]2 | G,,6- | G,,6 | G,,6 | C2 C2 B,2 | %110
 [C,_B,]2 [C,B,]2 [C,B,]2 | [C,A,]2 [C,A,]2 [C,A,]2 | [C,_A,]2 [C,A,]2 [C,A,]2 | %113
 [C,G,]2 [C,G,]2 [C,G,]2 | [A,,A,]2 [G,,G,]2 [F,,F,]2 | [D,,D,]2 [D,,D,]2 [E,,E,]2 | %116
 [F,,F,]2 [^F,,^F,]2 [G,,G,]2 | [A,,^F,]2 [B,,=F,G,]2 [C,E,G,]2 | [^F,A,]2 [F,A,]2 [F,A,]2 | %119
 [^F,A,]2 [F,A,]2 [F,A,]2 | G,6 | G,,6 | [C,,C,]2 [=B,,,=B,,]2 [_B,,,_B,,]2 | %123
 [A,,,A,,]2 [_A,,,_A,,]2 [G,,,G,,]2 | [^F,,,^F,,]2 [^F,A,]2 [F,A,]2 | [^F,A,]2 [F,A,]2 [F,A,]2 | %126
 [G,,G,]4 B,2 | C2 G,2 ^F,2 | G,4 F,2 | !arpeggio!!fermata![C,,G,,C,]6 |] %130
V:4
 x6 | x6 | [C_E]2 [CE]2 [CE]2 | !arpeggio![CD]2 [CD]2 [CD]2 | x6 | x6 | x6 | x6 | x6 | x6 | x6 | %11
 x6 | x6 | x6 | x6 | [=B,D]2 [B,D]2 [B,D]2 | x6 | x6 | x6 | x6 | x6 | x6 | x6 | x6 | x6 | x6 | %26
 [CE]2 [B,D]2 [A,C]2 | E2 E2 D2 | x6 | x6 | x6 | C2 C2 C2 | x6 | x6 | x6 | x6 | [CD]2 [CD]2 [CD]2 | %37
 [C_E]2 [CE]2 [CE]2 | x6 | x6 | x6 | x6 | [C_E]2 [CE]2 [CE]2 | [CD]2 [CD]2 [CD]2 | C2 C2 C2 | x6 | %46
 x6 |[I:staff +1] [E,G,]2 [E,G,]2 [F,B,]2 | [E,G,]2!p! [E,G,]2 [E,G,]2 |[I:staff -1] z6 | x6 | x6 | %52
 x6 | x6 | x6 | x6 | [B,D]2 [B,D]2 [B,D]2 | x6 | x6 | x6 | x6 | x6 | x6 | x4[I:staff +1] ^F,2 | %64
 x6 | x6 | x6 |[I:staff -1] [CE]2 [B,D]2 [A,C]2 | [CE]2 [CE]2 [B,D]2 | x6 | x6 | x6 | C2 C2 C2 | %73
 x6 | x6 | x6 | x6 | x6 | x6 | x6 | x6 | x6 | x6 | [C_E]2 [CE]2 [CE]2 | [CD]2 [CD]2 [CD]2 | %85
 C2 C2 C2 | x6 | x6 | x6 | x6 | x6 | x6 | x6 | x6 | x6 | x6 | x6 | [B,D]2 [B,D]2 [B,D]2 | x6 | x6 | %100
 x6 | x6 | x6 | x6 | x6 | x6 | x6 |[I:staff +1] A,2 =B,2[I:staff -1] C2 | [CE]2 [B,D]2 [A,C]2 | %109
 E2 E2 C2 | x6 | x6 | x6 | C2 C2 C2 | x6 | x6 | x6 | x6 | [C_E]2 [CE]2 [CE]2 | [C_E]2 [CE]2 [CE]2 | %120
 x6 |[I:staff +1] F,2 F,2 F,2 | [E,G,]2 [E,G,]2 [E,G,]2 | [E,G,]2 [E,G,]2 [E,G,]2 | %124
[I:staff -1] [C_E]2 [CE]2 [CE]2 | [CD]2 [CD]2 [CD]2 | x6 | x6 | [CD]2 [CD]2 [B,D]2 | %129
[I:staff +1] [E,G,]6 |] %130
V:5
 x6 | x6 | x6 | x6 | x6 | x6 | x6 | x6 | x6 | x6 | x6 | x6 | x6 | x6 | x6 | x6 | x6 | x6 | x6 | %19
 x6 | x6 | x6 | D,2 D,2 D,,2 | [G,,D,]2 [G,,D,]2 [G,,D,]2 | x6 | G,,6 | x6 | G,4 G,2 | x6 | x6 | %30
 x6 | x6 | x6 | x6 | x6 | x6 | x6 | x6 | x6 | G,,6 | C,6 | x6 | x6 | x6 | x6 | x6 | x6 | G,,,6 | %48
 C,,6 | x6 | x6 | x6 | x6 | x6 | x6 | x6 | x6 | x6 | x6 | x6 | x6 | x6 | x6 | x6 | %64
 G,,2 [G,,D,]2 [G,,D,]2 | x6 | [G,,G,]6 | x6 | x6 | x6 | x6 | x6 | x6 | x6 | x6 | x6 | x6 | x6 | %78
 x6 | x6 | G,,6 | C,6 | x6 | x6 | x6 | x6 | x6 | x6 | G,,4 G,,,2 | %89
 [C,,G,,C,]2 [C,,G,,C,]2 [C,,G,,C,]2 | x6 | x6 | x6 | x6 | x6 | x6 | x6 | x6 | x6 | x6 | x6 | x6 | %102
 x6 | x6 | D,2 D,2 D,,2 | [G,,D,]2 [G,,D,]2 [G,,D,]2 | x6 | x6 | x6 | G,4 G,2 | x6 | x6 | x6 | x6 | %114
 x6 | x6 | x6 | x6 | x6 | x6 | x6 | x6 | x6 | x6 | x6 | x6 | x6 | x6 | x4 G,,2 | x6 |] %130

